img/SVG/head.svg

<svg xmlns="http://www.w3.org/2000/svg" viewBox="0 0 480 512"><title>head</title><g data-name="Layer 2"><g data-name="Layer 1"><path d="M320 512q0-46.48.09-93c0-8.59 2.36-10.94 11-10.94h44.48c22.81-.07 40.49-17.76 40.54-40.59v-69c0-7.9 2.53-10.41 10.48-10.42h38.12c-.85-3.68-1.05-7-2.34-9.79-13.89-30.41-27.58-60.92-42.17-91-4.41-9.09-4.06-18.37-4.89-27.66-6.2-68.6-60.63-128.25-128.54-140.77-15.33-2.83-30.7-3.23-46.52-2.75v31.77h15.41V64h48v47.6h-15.45V80.2H256v15.34h-47.5v-47.3h15.21v-32h-47.44V48h15.38v47.6h-47.21V48.29h15.33V16.12H128V0h140c7.53 1.17 15.13 2 22.58 3.55C371.78 20.43 428.8 88.11 432 171.1a16.71 16.71 0 0 0 1.43 6.19q22.07 48.07 44.33 96.05A33.47 33.47 0 0 0 480 277v22c-2.86 4-6.75 5.18-11.62 5-8.81-.32-17.65-.09-26.47-.09h-10c0 22.07.09 43.37 0 64.67-.14 27.24-20.13 51-47 54.29-14.13 1.71-28.57.78-42.88 1h-6V512zM160.1 79.72h15.61V64.28H160.1zm64 .08h15.7V64.2h-15.66zM144 512V396.53a15.62 15.62 0 0 0-1.94-6.55c-14.45-29.06-29-58-43.4-87.16a25 25 0 0 1-2.47-10.44c-.23-20.83-.11-41.66-.11-62.49v-5.79H80.29v-16H32.35V144H0v-16h32V64.22h47.92V48.38h47.65v47.15H80.18V80.27H48.25v47.49h31.61V112.5h47.77v47.08H80.24v-15.37h-32v47.61H80v-15.38h47.53v47.34h-15.6v5.16c0 20.33-.07 40.65.09 61a19.08 19.08 0 0 0 1.94 8c14.32 28.93 28.87 57.76 43.11 86.73a27 27 0 0 1 2.72 11.33c.23 38.65.18 77.3.21 116zM96.13 79.79h15.67V64.21H96.13zm15.68 64.07V128.2H96.2v15.67zm-15.67 63.83h15.55v-15.38H96.14z"/><path d="M192 512q0-94.69.07-189.39c0-.65-.11-1.3-.22-2.53H160.3v-95.9h-15.87v-47.7h47.22v47.22h-15.32v80.14h31.48v48.1H240V512h-16V368.26h-16V512zm-16.29-304.11v-15.6h-15.42v15.59zm95.97 80.28h112v15.44H256.22v-31.54h-31.95v-47.94H208.5v-47.77h47.19v15.3h32V144.3h-31.6v15.31h-47.66v-47.14h47.39V128h47.95v31.94h47.84v15.9h-47.56v31.94h-47.94v15.92h-15.87v32.17h31.44zm-31.86-144.32v-15.67h-15.64v15.67zm.09 48.39h-15.67v15.52h15.67zm-48.18-79.74v47.08h-47.27V112.5zm-15.94 31.37v-15.66h-15.58v15.67zm159.97-79.5v15.17H320.5V64.37zm-15.53 47.27V96.45h15.27v15.18zm47.43-15.21v15.22h-15.27V96.43z"/><path d="M335.75 128.34v15.22h-15.27v-15.22zm32.61 31.89h15.18v15.27h-15.18zm-176.02 80.02h15.22v15.27h-15.22zm15.38 32.24v15.11h-15.28v-15.11zm16.62 31.08v-15.23h15.27v15.22zm-.1 32.06v-15.17h15.26v15.17zm32.25-15.35h15.11v15.27h-15.11z"/></g></g></svg>

<svg xmlns="http://www.w3.org/2000/svg" viewBox="0 0 480 512"><title>head</title><g id="Layer_2" data-name="Layer 2"><g id="Layer_1-2" data-name="Layer 1"><path d="M320,512q0-46.48.09-93c0-8.59,2.36-10.94,11-10.94,14.83,0,29.66,0,44.48,0,22.81-.07,40.49-17.76,40.54-40.59,0-23,0-46,0-69,0-7.9,2.53-10.41,10.48-10.42,12.3,0,24.6,0,38.12,0-.85-3.68-1.05-7-2.34-9.79-13.89-30.41-27.58-60.92-42.17-91-4.41-9.09-4.06-18.37-4.89-27.66C409.11,91,354.68,31.35,286.77,18.83c-15.33-2.83-30.7-3.23-46.52-2.75V47.85h15.41V64h48V111.6H288.21V80.2H256V95.54H208.5V48.24h15.21v-32H176.27V48h15.38V95.6H144.44V48.29h15.33V16.12H128V0H268c7.53,1.17,15.13,2,22.58,3.55C371.78,20.43,428.8,88.11,432,171.1a16.71,16.71,0,0,0,1.43,6.19q22.07,48.07,44.33,96.05A33.47,33.47,0,0,0,480,277v22c-2.86,4-6.75,5.18-11.62,5-8.81-.32-17.65-.09-26.47-.09h-10c0,22.07.09,43.37,0,64.67-.14,27.24-20.13,51-47,54.29-14.13,1.71-28.57.78-42.88,1-1.92,0-3.84,0-6,0V512ZM160.1,79.72h15.61V64.28H160.1Zm64,.08H239.8V64.2H224.14Z"/><path d="M144,512q0-57.74,0-115.47a15.62,15.62,0,0,0-1.94-6.55c-14.45-29.06-29-58-43.4-87.16a25,25,0,0,1-2.47-10.44c-.23-20.83-.11-41.66-.11-62.49V224.1H80.29v-16H32.35V144H0V128H32V64.22H79.92V48.38h47.65V95.53H80.18V80.27H48.25v47.49H79.86V112.5h47.77v47.08H80.24V144.21h-32v47.61H80V176.44h47.53v47.34h-15.6c0,2,0,3.57,0,5.16,0,20.33-.07,40.65.09,61a19.08,19.08,0,0,0,1.94,8c14.32,28.93,28.87,57.76,43.11,86.73A27,27,0,0,1,159.79,396c.23,38.65.18,77.3.21,116ZM96.13,79.79h15.67V64.21H96.13Zm15.68,64.07V128.2H96.2v15.67ZM96.14,207.69h15.55V192.31H96.14Z"/><path d="M192,512q0-94.69.07-189.39c0-.65-.11-1.3-.22-2.53H160.3V224.18H144.43V176.48h47.22V223.7H176.33v80.14h31.48v48.1H240V512H224V368.26H208V512ZM175.71,207.89V192.29H160.29v15.59Z"/><path d="M271.68,288.17h112v15.44H256.22V272.07H224.27V224.13H208.5V176.36h47.19v15.3h32V144.3h-31.6v15.31H208.43V112.47h47.39V128h47.95v31.94h47.84v15.9H304.05v31.94H256.11V223.7H240.24v32.17h31.44ZM239.82,143.85V128.18H224.18v15.67Zm.09,48.39H224.24v15.52h15.67Z"/><path d="M191.73,112.5v47.08H144.46V112.5Zm-15.94,31.37V128.21H160.21v15.67Z"/><path d="M335.76,64.37V79.54H320.5V64.37Z"/><path d="M320.23,111.64V96.45H335.5v15.18Z"/><path d="M367.66,96.43v15.22H352.39V96.43Z"/><path d="M335.75,128.34v15.22H320.48V128.34Z"/><path d="M368.36,160.23h15.18V175.5H368.36Z"/><path d="M192.34,240.25h15.22v15.27H192.34Z"/><path d="M207.72,272.49V287.6H192.44V272.49Z"/><path d="M224.34,303.57V288.34h15.27v15.22Z"/><path d="M224.24,335.63V320.46H239.5v15.17Z"/><path d="M256.49,320.28H271.6v15.27H256.49Z"/></g></g></svg>
